X:0212
T:Donald Couper and his man
N:second part related to Macpherson's Farewell
M:2/4
L:1/16
Q:1/4=104
I: || ||
Z:Jack Campin * www.campin.me.uk * 2009
K:E Dorian
 d2 |Bcde d2A2|B2e2-e2d2|Bcde d2B2|   g2f2e2d2|
     Bcde d2A2|B2e2 e2A2|B2d2 d2B2|   g2f2e2 ||
(fg)|a2d2 b2a2|f2e2 e2fg|a2d2 b2a2|{g}f4  e2
(fg)|a2d2 b2a2|gfed fedc|Bcde d2B2|   g2f2e2 |]
<end>
<start>
